X:1
T:Tre vilsna fjärdedelar
R:Låt
O:Småland
M:9/8
L:1/8
K:G
Z:Bo Bernvill
 G, |: B,DG B3 G2 B, |[M:12/8] DGB d3 B2 G BdB |[M:9/8] eBd BGB  GDG |1 AGF E3 D2 G, :|2 AGF E3 D2 D |: CDF AFA cAc | dcB AGF EDC | B,DG BGB dBd | edc BAG FED | CDF AFA cAc | dcB AGF EDC | B,DG Bge dcB |1 AGF G3 D2 D :|2 AGF G3 G,3 |]

